; generated by PrusaSlicer 2.7.4+win64 on 2024-07-02 at 14:18:08 UTC


;
;
; 

; external perimeters extrusion width = 0.60mm
; perimeters extrusion width = 0.50mm
; infill extrusion width = 0.50mm
; solid infill extrusion width = 0.50mm
; top infill extrusion width = 0.45mm
; first layer extrusion width = 0.42mm

; external perimeters extrusion width = 0.60mm
; perimeters extrusion width = 0.50mm
; infill extrusion width = 0.50mm
; solid infill extrusion width = 0.50mm
; top infill extrusion width = 0.45mm
; first layer extrusion width = 0.42mm

M73 P0 R94
M73 Q0 S96
M201 X1000 Y1000 Z200 E5000 ; sets maximum accelerations, mm/sec^2
M203 X200 Y200 Z12 E120 ; sets maximum feedrates, mm / sec
M204 S1250 T1250 ; sets acceleration (S) and retract acceleration (R), mm/sec^2
M205 X8.00 Y8.00 Z0.40 E4.50 ; sets the jerk limits, mm/sec
M205 S0 T0 ; sets the minimum extruding and travel feed rate, mm/sec

; printing object Platinenhalterung.stl id:1 copy 0
; stop printing object Platinenhalterung.stl id:1 copy 0
; printing object platinendeckel.stl id:0 copy 0
; stop printing object platinendeckel.stl id:0 copy 0

;TYPE:Custom
M862.3 P "MK3S" ; printer model check
M862.1 P0.4 ; nozzle diameter check
M115 U3.13.3 ; tell printer latest fw version
G90 ; use absolute coordinates
M83 ; extruder relative mode
M104 S230 ; set extruder temp
M140 S85 ; set bed temp
M190 S85 ; wait for bed temp
M109 S230 ; wait for extruder temp
G28 W ; home all without mesh bed level
G80 X49.9988 Y59.9988 W80.0025 H127.615 ; mesh bed levelling

G1 Z0.2 F720
G1 Y-3 F1000 ; go outside print area
G92 E0
G1 X60 E9 F1000 ; intro line
G1 X100 E12.5 F1000 ; intro line

G92 E0
M221 S95

; Don't change E values below. Excessive value can damage the printer.

M907 E538 ; set extruder motor current
G21 ; set units to millimeters
G90 ; use absolute coordinates
M83 ; use relative distances for extrusion

M900 K0.08 ; Filament gcode LA 1.5
M900 K45 ; Filament gcode LA 1.0




M107
;LAYER_CHANGE
;Z:0.4
;HEIGHT:0.4
G1 E-1 F2100
G1 Z.6 F720
G1 X50.557 Y61.206 F10800
G1 Z.4 F720
G1 E1 F2100
M204 S800
;TYPE:Skirt/Brim
;WIDTH:0.42
G1 F1200
G1 X51.6 Y60.346 E.07512
G1 X52.5 Y60.166 E.051
G1 X127.5 Y60.166 E4.16782
G1 X128.794 Y60.557 E.07512
M73 Q0 S95
G1 X129.654 Y61.6 E.07512
G1 X129.834 Y62.5 E.051
G1 X129.834 Y185.112 E6.81366
G1 X129.443 Y186.406 E.07512
G1 X128.4 Y187.266 E.07512
G1 X127.5 Y187.447 E.05102
G1 X52.5 Y187.447 E4.16782
G1 X51.206 Y187.055 E.07514
G1 X50.346 Y186.012 E.07512
G1 X50.166 Y185.112 E.051
G1 X50.166 Y62.5 E6.81366
G1 X50.54 Y61.264 E.07176
M204 S1000
;WIPE_START
G1 F8640
G1 X50.557 Y61.206 E-.01396
G1 X51.6 Y60.346 E-.31214
G1 X52.5 Y60.166 E-.21193
G1 X54.501 Y60.166 E-.46197
;WIPE_END
G1 Z.6 F720
; printing object platinendeckel.stl id:0 copy 0
G1 X126.756 Y63.244 F10800
G1 Z.4 F720
M73 P0 R93
G1 E1 F2100
M204 S800
;TYPE:Perimeter
;WIDTH:0.42
G1 F1200
G1 X126.756 Y90 E1.48685
G1 X126.756 Y116.756 E1.48685
G1 X53.244 Y116.756 E4.08513
G1 X53.244 Y63.244 E2.97371
G1 X126.696 Y63.244 E4.08179
M204 S1000
G1 X126.696 Y63.244 F10800
G1 X127.09 Y62.91
M204 S800
;TYPE:External perimeter
G1 F1200
G1 X127.09 Y90 E1.50541
G1 X127.09 Y117.09 E1.50541
G1 X52.91 Y117.09 E4.12225
G1 X52.91 Y62.91 E3.01083
G1 X127.03 Y62.91 E4.11891
M204 S1000
;WIPE_START
G1 F8640
G1 X127.09 Y62.91 E-.01385
G1 X127.09 Y67.181 E-.98615
;WIPE_END
G1 Z.6 F720
G1 X125.928 Y63.395 F10800
G1 Z.4 F720
G1 E1 F2100
M204 S800
;TYPE:Solid infill
;WIDTH:0.420826
G1 F1200
G1 X126.455 Y63.921 E.04148
G1 X126.455 Y64.395 E.02641
G1 X125.605 Y63.545 E.06697
G1 X125.131 Y63.545 E.02641
G1 X126.455 Y64.869 E.10431
G1 X126.455 Y65.343 E.02641
G1 X124.657 Y63.545 E.14165
G1 X124.184 Y63.545 E.02635
G1 X126.455 Y65.816 E.17892
G1 X126.455 Y66.29 E.02641
G1 X123.71 Y63.545 E.21626
G1 X123.236 Y63.545 E.02641
G1 X126.455 Y66.764 E.2536
G1 X126.455 Y67.238 E.02641
G1 X122.762 Y63.545 E.29095
G1 X122.289 Y63.545 E.02635
G1 X126.455 Y67.711 E.32821
G1 X126.455 Y68.185 E.02641
G1 X121.815 Y63.545 E.36555
G1 X121.341 Y63.545 E.02641
G1 X126.455 Y68.659 E.4029
G1 X126.455 Y69.133 E.02641
M73 P1 R93
G1 X120.867 Y63.545 E.44024
G1 X120.394 Y63.545 E.02635
M73 Q1 S95
G1 X126.455 Y69.606 E.47751
G1 X126.455 Y70.08 E.02641
G1 X119.92 Y63.545 E.51485
G1 X119.446 Y63.545 E.02641
G1 X126.455 Y70.554 E.55219
G1 X126.455 Y71.028 E.02641
G1 X118.972 Y63.545 E.58954
G1 X118.499 Y63.545 E.02635
G1 X126.455 Y71.501 E.6268
G1 X126.455 Y71.975 E.02641
G1 X118.025 Y63.545 E.66414
G1 X117.551 Y63.545 E.02641
G1 X126.455 Y72.449 E.70149
G1 X126.455 Y72.922 E.02635
G1 X117.078 Y63.545 E.73875
G1 X116.604 Y63.545 E.02641
G1 X126.455 Y73.396 E.77609
G1 X126.455 Y73.87 E.02641
G1 X116.13 Y63.545 E.81344
G1 X115.656 Y63.545 E.02641
G1 X126.455 Y74.344 E.85078
G1 X126.455 Y74.817 E.02635
G1 X115.183 Y63.545 E.88805
G1 X114.709 Y63.545 E.02641
G1 X126.455 Y75.291 E.92539
G1 X126.455 Y75.765 E.02641
G1 X114.235 Y63.545 E.96273
G1 X113.761 Y63.545 E.02641
G1 X126.455 Y76.239 E1.00008
G1 X126.455 Y76.712 E.02635
M73 Q1 S94
G1 X113.288 Y63.545 E1.03734
G1 X112.814 Y63.545 E.02641
G1 X126.455 Y77.186 E1.07468
G1 X126.455 Y77.66 E.02641
G1 X112.34 Y63.545 E1.11203
G1 X111.866 Y63.545 E.02641
G1 X126.455 Y78.134 E1.14937
G1 X126.455 Y78.607 E.02635
G1 X111.393 Y63.545 E1.18663
G1 X110.919 Y63.545 E.02641
G1 X126.455 Y79.081 E1.22398
G1 X126.455 Y79.555 E.02641
G1 X110.445 Y63.545 E1.26132
G1 X109.971 Y63.545 E.02641
G1 X126.455 Y80.029 E1.29866
G1 X126.455 Y80.502 E.02635
G1 X109.498 Y63.545 E1.33593
G1 X109.024 Y63.545 E.02641
G1 X126.455 Y80.976 E1.37327
G1 X126.455 Y81.45 E.02641
G1 X108.55 Y63.545 E1.41062
G1 X108.076 Y63.545 E.02641
G1 X126.455 Y81.924 E1.44796
G1 X126.455 Y82.397 E.02635
G1 X107.603 Y63.545 E1.48522
G1 X107.129 Y63.545 E.02641
G1 X126.455 Y82.871 E1.52257
G1 X126.455 Y83.345 E.02641
G1 X106.655 Y63.545 E1.55991
G1 X106.181 Y63.545 E.02641
G1 X126.455 Y83.819 E1.59725
G1 X126.455 Y84.292 E.02635
G1 X105.708 Y63.545 E1.63452
G1 X105.234 Y63.545 E.02641
M73 P1 R92
G1 X126.455 Y84.766 E1.67186
G1 X126.455 Y85.24 E.02641
G1 X104.76 Y63.545 E1.7092
G1 X104.287 Y63.545 E.02635
G1 X126.455 Y85.713 E1.74647
G1 X126.455 Y86.187 E.02641
G1 X103.813 Y63.545 E1.78381
G1 X103.339 Y63.545 E.02641
G1 X126.455 Y86.661 E1.82116
G1 X126.455 Y87.135 E.02641
G1 X102.865 Y63.545 E1.8585
G1 X102.392 Y63.545 E.02635
G1 X126.455 Y87.608 E1.89576
G1 X126.455 Y88.082 E.02641
G1 X101.918 Y63.545 E1.93311
G1 X101.444 Y63.545 E.02641
G1 X126.455 Y88.556 E1.97045
G1 X126.455 Y89.03 E.02641
G1 X100.97 Y63.545 E2.00779
G1 X100.497 Y63.545 E.02635
G1 X126.455 Y89.503 E2.04506
G1 X126.455 Y89.977 E.02641
G1 X100.023 Y63.545 E2.0824
G1 X99.549 Y63.545 E.02641
G1 X126.455 Y90.451 E2.11974
G1 X126.455 Y90.925 E.02641
G1 X99.075 Y63.545 E2.15709
G1 X98.602 Y63.545 E.02635
M73 P2 R92
G1 X126.455 Y91.398 E2.19435
G1 X126.455 Y91.872 E.02641
M73 Q2 S94
G1 X98.128 Y63.545 E2.2317
G1 X97.654 Y63.545 E.02641
G1 X126.455 Y92.346 E2.26904
G1 X126.455 Y92.82 E.02641
G1 X97.18 Y63.545 E2.30638
G1 X96.707 Y63.545 E.02635
G1 X126.455 Y93.293 E2.34365
G1 X126.455 Y93.767 E.02641
G1 X96.233 Y63.545 E2.38099
G1 X95.759 Y63.545 E.02641
G1 X126.455 Y94.241 E2.41833
G1 X126.455 Y94.715 E.02641
M73 Q2 S93
G1 X95.285 Y63.545 E2.45568
G1 X94.812 Y63.545 E.02635
G1 X126.455 Y95.188 E2.49294
G1 X126.455 Y95.662 E.02641
G1 X94.338 Y63.545 E2.53028
G1 X93.864 Y63.545 E.02641
G1 X126.455 Y96.136 E2.56763
G1 X126.455 Y96.61 E.02641
G1 X93.39 Y63.545 E2.60497
G1 X92.917 Y63.545 E.02635
G1 X126.455 Y97.083 E2.64224
G1 X126.455 Y97.557 E.02641
G1 X92.443 Y63.545 E2.67958
G1 X91.969 Y63.545 E.02641
G1 X126.455 Y98.031 E2.71692
G1 X126.455 Y98.504 E.02635
G1 X91.496 Y63.545 E2.75419
G1 X91.022 Y63.545 E.02641
M73 P2 R91
G1 X126.455 Y98.978 E2.79153
G1 X126.455 Y99.452 E.02641
G1 X90.548 Y63.545 E2.82887
G1 X90.074 Y63.545 E.02641
G1 X126.455 Y99.926 E2.86622
G1 X126.455 Y100.399 E.02635
G1 X89.601 Y63.545 E2.90348
G1 X89.127 Y63.545 E.02641
G1 X126.455 Y100.873 E2.94082
G1 X126.455 Y101.347 E.02641
G1 X88.653 Y63.545 E2.97817
G1 X88.179 Y63.545 E.02641
G1 X126.455 Y101.821 E3.01551
G1 X126.455 Y102.294 E.02635
G1 X87.706 Y63.545 E3.05278
G1 X87.232 Y63.545 E.02641
M73 P3 R91
G1 X126.455 Y102.768 E3.09012
G1 X126.455 Y103.242 E.02641
M73 Q3 S93
G1 X86.758 Y63.545 E3.12746
G1 X86.284 Y63.545 E.02641
G1 X126.455 Y103.716 E3.16481
G1 X126.455 Y104.189 E.02635
G1 X85.811 Y63.545 E3.20207
G1 X85.337 Y63.545 E.02641
G1 X126.455 Y104.663 E3.23941
G1 X126.455 Y105.137 E.02641
G1 X84.863 Y63.545 E3.27676
G1 X84.389 Y63.545 E.02641
M73 Q3 S92
G1 X126.455 Y105.611 E3.3141
G1 X126.455 Y106.084 E.02635
G1 X83.916 Y63.545 E3.35136
G1 X83.442 Y63.545 E.02641
G1 X126.455 Y106.558 E3.38871
G1 X126.455 Y107.032 E.02641
G1 X82.968 Y63.545 E3.42605
G1 X82.494 Y63.545 E.02641
G1 X126.455 Y107.506 E3.46339
G1 X126.455 Y107.979 E.02635
G1 X82.021 Y63.545 E3.50066
G1 X81.547 Y63.545 E.02641
G1 X126.455 Y108.453 E3.538
G1 X126.455 Y108.927 E.02641
M73 P3 R90
G1 X81.073 Y63.545 E3.57535
G1 X80.6 Y63.545 E.02635
G1 X126.455 Y109.4 E3.61261
G1 X126.455 Y109.874 E.02641
G1 X80.126 Y63.545 E3.64995
G1 X79.652 Y63.545 E.02641
G1 X126.455 Y110.348 E3.6873
G1 X126.455 Y110.822 E.02641
G1 X79.178 Y63.545 E3.72464
G1 X78.705 Y63.545 E.02635
G1 X126.455 Y111.295 E3.7619
G1 X126.455 Y111.769 E.02641
M73 P4 R90
G1 X78.231 Y63.545 E3.79925
G1 X77.757 Y63.545 E.02641
M73 Q4 S92
G1 X126.455 Y112.243 E3.83659
G1 X126.455 Y112.717 E.02641
G1 X77.283 Y63.545 E3.87393
G1 X76.81 Y63.545 E.02635
G1 X126.455 Y113.19 E3.9112
G1 X126.455 Y113.664 E.02641
G1 X76.336 Y63.545 E3.94854
G1 X75.862 Y63.545 E.02641
M73 Q4 S91
G1 X126.455 Y114.138 E3.98589
G1 X126.455 Y114.612 E.02641
G1 X75.388 Y63.545 E4.02323
G1 X74.915 Y63.545 E.02635
G1 X126.455 Y115.085 E4.06049
G1 X126.455 Y115.559 E.02641
G1 X74.441 Y63.545 E4.09784
G1 X73.967 Y63.545 E.02641
G1 X126.455 Y116.033 E4.13518
G1 X126.455 Y116.455 E.02351
G1 X126.404 Y116.455 E.00284
G1 X73.493 Y63.545 E4.16847
G1 X73.02 Y63.545 E.02635
M73 P4 R89
G1 X125.93 Y116.455 E4.16843
G1 X125.456 Y116.455 E.02641
G1 X72.546 Y63.545 E4.16843
G1 X72.072 Y63.545 E.02641
G1 X124.982 Y116.455 E4.16843
G1 X124.509 Y116.455 E.02635
G1 X71.598 Y63.545 E4.16847
G1 X71.125 Y63.545 E.02635
M73 P5 R89
G1 X124.035 Y116.455 E4.16843
G1 X123.561 Y116.455 E.02641
M73 Q5 S91
G1 X70.651 Y63.545 E4.16843
G1 X70.177 Y63.545 E.02641
G1 X123.087 Y116.455 E4.16843
G1 X122.614 Y116.455 E.02635
G1 X69.703 Y63.545 E4.16847
G1 X69.23 Y63.545 E.02635
G1 X122.14 Y116.455 E4.16843
G1 X121.666 Y116.455 E.02641
G1 X68.756 Y63.545 E4.16843
G1 X68.282 Y63.545 E.02641
M73 Q5 S90
G1 X121.192 Y116.455 E4.16843
G1 X120.719 Y116.455 E.02635
G1 X67.809 Y63.545 E4.16843
G1 X67.335 Y63.545 E.02641
G1 X120.245 Y116.455 E4.16843
G1 X119.771 Y116.455 E.02641
G1 X66.861 Y63.545 E4.16843
G1 X66.387 Y63.545 E.02641
G1 X119.297 Y116.455 E4.16843
G1 X118.824 Y116.455 E.02635
G1 X65.914 Y63.545 E4.16843
G1 X65.44 Y63.545 E.02641
M73 P5 R88
G1 X118.35 Y116.455 E4.16843
G1 X117.876 Y116.455 E.02641
G1 X64.966 Y63.545 E4.16843
G1 X64.492 Y63.545 E.02641
G1 X117.403 Y116.455 E4.16847
G1 X116.929 Y116.455 E.02641
M73 P6 R88
G1 X64.019 Y63.545 E4.16843
G1 X63.545 Y63.545 E.02641
G1 X116.455 Y116.455 E4.16843
G1 X115.981 Y116.455 E.02641
M73 Q6 S90
G1 X63.071 Y63.545 E4.16843
G1 X62.597 Y63.545 E.02641
G1 X115.508 Y116.455 E4.16847
G1 X115.034 Y116.455 E.02641
G1 X62.124 Y63.545 E4.16843
G1 X61.65 Y63.545 E.02641
G1 X114.56 Y116.455 E4.16843
G1 X114.086 Y116.455 E.02641
G1 X61.176 Y63.545 E4.16843
G1 X60.702 Y63.545 E.02641
M73 Q6 S89
G1 X113.613 Y116.455 E4.16847
G1 X113.139 Y116.455 E.02641
G1 X60.229 Y63.545 E4.16843
G1 X59.755 Y63.545 E.02641
G1 X112.665 Y116.455 E4.16843
G1 X112.191 Y116.455 E.02641
G1 X59.281 Y63.545 E4.16843
G1 X58.807 Y63.545 E.02641
G1 X111.718 Y116.455 E4.16847
G1 X111.244 Y116.455 E.02641
G1 X58.334 Y63.545 E4.16843
G1 X57.86 Y63.545 E.02641
M73 P6 R87
G1 X110.77 Y116.455 E4.16843
G1 X110.296 Y116.455 E.02641
G1 X57.386 Y63.545 E4.16843
G1 X56.912 Y63.545 E.02641
M73 P7 R87
G1 X109.823 Y116.455 E4.16847
G1 X109.349 Y116.455 E.02641
G1 X56.439 Y63.545 E4.16843
G1 X55.965 Y63.545 E.02641
M73 Q7 S89
G1 X108.875 Y116.455 E4.16843
G1 X108.401 Y116.455 E.02641
G1 X55.491 Y63.545 E4.16843
G1 X55.018 Y63.545 E.02635
G1 X107.928 Y116.455 E4.16843
G1 X107.454 Y116.455 E.02641
G1 X54.544 Y63.545 E4.16843
G1 X54.07 Y63.545 E.02641
G1 X106.98 Y116.455 E4.16843
G1 X106.507 Y116.455 E.02635
G1 X53.596 Y63.545 E4.16847
G1 X53.545 Y63.545 E.00284
M73 Q7 S88
G1 X53.545 Y63.967 E.02351
G1 X106.033 Y116.455 E4.13518
G1 X105.559 Y116.455 E.02641
G1 X53.545 Y64.441 E4.09784
G1 X53.545 Y64.915 E.02641
G1 X105.085 Y116.455 E4.06049
G1 X104.612 Y116.455 E.02635
G1 X53.545 Y65.388 E4.02323
G1 X53.545 Y65.862 E.02641
G1 X104.138 Y116.455 E3.98589
G1 X103.664 Y116.455 E.02641
G1 X53.545 Y66.336 E3.94854
G1 X53.545 Y66.81 E.02641
M73 P7 R86
G1 X103.19 Y116.455 E3.9112
G1 X102.717 Y116.455 E.02635
M73 P8 R86
G1 X53.545 Y67.283 E3.87393
G1 X53.545 Y67.757 E.02641
G1 X102.243 Y116.455 E3.83659
G1 X101.769 Y116.455 E.02641
M73 Q8 S88
G1 X53.545 Y68.231 E3.79925
G1 X53.545 Y68.705 E.02641
G1 X101.295 Y116.455 E3.7619
G1 X100.822 Y116.455 E.02635
G1 X53.545 Y69.178 E3.72464
G1 X53.545 Y69.652 E.02641
G1 X100.348 Y116.455 E3.6873
G1 X99.874 Y116.455 E.02641
G1 X53.545 Y70.126 E3.64995
G1 X53.545 Y70.6 E.02641
G1 X99.4 Y116.455 E3.61261
G1 X98.927 Y116.455 E.02635
G1 X53.545 Y71.073 E3.57535
G1 X53.545 Y71.547 E.02641
G1 X98.453 Y116.455 E3.538
G1 X97.979 Y116.455 E.02641
M73 Q8 S87
G1 X53.545 Y72.021 E3.50066
G1 X53.545 Y72.495 E.02641
G1 X97.505 Y116.455 E3.46332
G1 X97.032 Y116.455 E.02635
G1 X53.545 Y72.968 E3.42605
G1 X53.545 Y73.442 E.02641
G1 X96.558 Y116.455 E3.38871
G1 X96.084 Y116.455 E.02641
G1 X53.545 Y73.916 E3.35136
G1 X53.545 Y74.39 E.02641
G1 X95.61 Y116.455 E3.31402
G1 X95.137 Y116.455 E.02635
G1 X53.545 Y74.863 E3.27676
G1 X53.545 Y75.337 E.02641
M73 P8 R85
G1 X94.663 Y116.455 E3.23941
G1 X94.189 Y116.455 E.02641
M73 P9 R85
G1 X53.545 Y75.811 E3.20207
G1 X53.545 Y76.284 E.02635
G1 X93.716 Y116.455 E3.16481
G1 X93.242 Y116.455 E.02641
G1 X53.545 Y76.758 E3.12746
G1 X53.545 Y77.232 E.02641
M73 Q9 S87
G1 X92.768 Y116.455 E3.09012
G1 X92.294 Y116.455 E.02641
G1 X53.545 Y77.706 E3.05278
G1 X53.545 Y78.179 E.02635
G1 X91.821 Y116.455 E3.01551
G1 X91.347 Y116.455 E.02641
G1 X53.545 Y78.653 E2.97817
G1 X53.545 Y79.127 E.02641
G1 X90.873 Y116.455 E2.94082
G1 X90.399 Y116.455 E.02641
G1 X53.545 Y79.601 E2.90348
G1 X53.545 Y80.074 E.02635
G1 X89.926 Y116.455 E2.86622
G1 X89.452 Y116.455 E.02641
G1 X53.545 Y80.548 E2.82887
G1 X53.545 Y81.022 E.02641
G1 X88.978 Y116.455 E2.79153
G1 X88.504 Y116.455 E.02641
G1 X53.545 Y81.496 E2.75419
G1 X53.545 Y81.969 E.02635
M73 Q9 S86
G1 X88.031 Y116.455 E2.71692
G1 X87.557 Y116.455 E.02641
G1 X53.545 Y82.443 E2.67958
G1 X53.545 Y82.917 E.02641
G1 X87.083 Y116.455 E2.64224
G1 X86.609 Y116.455 E.02641
G1 X53.545 Y83.391 E2.60489
G1 X53.545 Y83.864 E.02635
G1 X86.136 Y116.455 E2.56763
G1 X85.662 Y116.455 E.02641
G1 X53.545 Y84.338 E2.53028
G1 X53.545 Y84.812 E.02641
G1 X85.188 Y116.455 E2.49294
G1 X84.714 Y116.455 E.02641
G1 X53.545 Y85.286 E2.4556
G1 X53.545 Y85.759 E.02635
G1 X84.241 Y116.455 E2.41833
G1 X83.767 Y116.455 E.02641
M73 P10 R84
G1 X53.545 Y86.233 E2.38099
G1 X53.545 Y86.707 E.02641
G1 X83.293 Y116.455 E2.34365
G1 X82.819 Y116.455 E.02641
G1 X53.545 Y87.181 E2.3063
G1 X53.545 Y87.654 E.02635
G1 X82.346 Y116.455 E2.26904
G1 X81.872 Y116.455 E.02641
M73 Q10 S86
G1 X53.545 Y88.128 E2.2317
G1 X53.545 Y88.602 E.02641
G1 X81.398 Y116.455 E2.19435
G1 X80.925 Y116.455 E.02635
G1 X53.545 Y89.075 E2.15709
G1 X53.545 Y89.549 E.02641
G1 X80.451 Y116.455 E2.11974
G1 X79.977 Y116.455 E.02641
G1 X53.545 Y90.023 E2.0824
G1 X53.545 Y90.497 E.02641
G1 X79.503 Y116.455 E2.04506
G1 X79.03 Y116.455 E.02635
G1 X53.545 Y90.97 E2.00779
G1 X53.545 Y91.444 E.02641
G1 X78.556 Y116.455 E1.97045
G1 X78.082 Y116.455 E.02641
G1 X53.545 Y91.918 E1.93311
G1 X53.545 Y92.392 E.02641
G1 X77.608 Y116.455 E1.89576
